X:305
T: Wo yiren kanle yi tai xi
N: C0817B
O: China,Shanxi
S: MM,]
N: Textbeilage kopiert.  Fortsetzung der Platte auf Band 20
N: +++Dieses Lied ist GETEILT! Der zweite Teil ist im vorigen Dokument
N: unter gleicher Signatur kodiert. +++ Fuer Phr. 1-4 gilt Grundton Eb, 1=-7).
N: Vereinzelt Verzierungen, Glissandi.
R: Xiaodiao, Erge]
M: 2/4
L: 1/16
K: F
c4G3c | c2c2e4 | c2cecBEF | G8 |
c4G2c2 | e2c2c4 | F2EFG2F2 | C8 |
F2DC=B,CDC | C2C6 | F4G4 | cEcGB4 |
G2G2c3e | E3FG4 | B2GBG2F2 | C8 |
F2DC=B,CDC | C2C6 | F4G4 | c2dcG4 |
G4c3d | c2F2G4 | G3cF2DC | C8 |
F2F2D2C2 | =B,2B,2C4 | F2DFC2C2 | =B,2B,2C4 |
z2G2F2G2 | c3dc4- | c8- | c2
dcc2c2 | z2dcc2c2 | z2dc=B2c2 |
B2c2f3d | c8- | c8 | z4z4 |
F4G3c | F2GFC2C2 | F4G3d | c2dcG2E2 |
c2GcG2F2 | GFC4C2 | D4G,4 | F2DCC2C2 |
F2CFGcF2 | G8 | c4d4 | cGc6- | c8 |
c2GcGAGF | GFC2F4 | F2EFGcFG | C8 |
F2DCDCG,2 | C2C6 |
F4G3c | F2GFC2C2 | F4G3d | c2dcG2E2 |
c2GcG2F2 | GFC4C2 | D4G,4 | F2DCC2C2 |
F2CFGcF2 | G8 | c4d4 | cGc6- | c8 |
c2GcGAGF | GFC2F4 | F2EFGcFG | C8 |
z4z4 | d2dcdcG2 | c2c6 |
c3cB2c2 | d4dcG2 | c8- | c8

@@@ Tune index: 6306
